resources/svg/mood-surprised.svg

<svg xmlns="http://www.w3.org/2000/svg" viewBox="0 0 15 15" fill="currentColor"><path d="M7 8C6.44772 8 6 8.44772 6 9C6 9.55228 6.44772 10 7 10H8C8.55228 10 9 9.55228 9 9C9 8.44772 8.55228 8 8 8H7Z" fill="black"/><path fill-rule="evenodd" clip-rule="evenodd" d="M0 7.5C0 3.35786 3.35786 0 7.5 0C11.6421 0 15 3.35786 15 7.5C15 11.6421 11.6421 15 7.5 15C3.35786 15 0 11.6421 0 7.5ZM4 6H5V5H4V6ZM10 6H11V5H10V6ZM5 9C5 7.89543 5.89543 7 7 7H8C9.10457 7 10 7.89543 10 9C10 10.1046 9.10457 11 8 11H7C5.89543 11 5 10.1046 5 9Z" fill="black"/></svg>

<svg xmlns="http://www.w3.org/2000/svg" viewBox="0 0 15 15" fill="currentColor"><path d="M7 8a1 1 0 000 2h1a1 1 0 000-2H7z" fill="currentColor"/><path fill-rule="evenodd" clip-rule="evenodd" d="M0 7.5a7.5 7.5 0 1115 0 7.5 7.5 0 01-15 0zM4 6h1V5H4v1zm6 0h1V5h-1v1zM5 9a2 2 0 012-2h1a2 2 0 110 4H7a2 2 0 01-2-2z" fill="currentColor"/></svg>
